packages/ui-solid/icons/add_circle_28.svg

<svg width="28" height="28" viewBox="0 0 28 28" fill="none" xmlns="http://www.w3.org/2000/svg">
<path fill-rule="evenodd" clip-rule="evenodd" d="M14 3.90001C8.42192 3.90001 3.9 8.42193 3.9 14C3.9 19.5781 8.42192 24.1 14 24.1C19.5781 24.1 24.1 19.5781 24.1 14C24.1 8.42193 19.5781 3.90001 14 3.90001ZM2.1 14C2.1 7.42782 7.42781 2.10001 14 2.10001C20.5722 2.10001 25.9 7.42782 25.9 14C25.9 20.5722 20.5722 25.9 14 25.9C7.42781 25.9 2.1 20.5722 2.1 14ZM14 8.60001C14.4971 8.60001 14.9 9.00295 14.9 9.50001V13.1H18.5C18.9971 13.1 19.4 13.5029 19.4 14C19.4 14.4971 18.9971 14.9 18.5 14.9H14.9V18.5C14.9 18.9971 14.4971 19.4 14 19.4C13.5029 19.4 13.1 18.9971 13.1 18.5V14.9H9.5C9.00294 14.9 8.6 14.4971 8.6 14C8.6 13.5029 9.00294 13.1 9.5 13.1H13.1V9.50001C13.1 9.00295 13.5029 8.60001 14 8.60001Z" fill="#007AFF"/>
</svg>

<svg xmlns="http://www.w3.org/2000/svg" width="28" height="28" fill="none"><path fill="currentColor" fill-rule="evenodd" d="M14 3.9C8.422 3.9 3.9 8.422 3.9 14S8.422 24.1 14 24.1 24.1 19.578 24.1 14 19.578 3.9 14 3.9M2.1 14C2.1 7.428 7.428 2.1 14 2.1S25.9 7.428 25.9 14 20.572 25.9 14 25.9 2.1 20.572 2.1 14M14 8.6a.9.9 0 0 1 .9.9v3.6h3.6a.9.9 0 1 1 0 1.8h-3.6v3.6a.9.9 0 1 1-1.8 0v-3.6H9.5a.9.9 0 1 1 0-1.8h3.6V9.5a.9.9 0 0 1 .9-.9" clip-rule="evenodd"/></svg>
